src/next/cmd/lc_attributepagesize.svg

<svg height="24" width="24" xmlns="http://www.w3.org/2000/svg" xmlns:xlink="http://www.w3.org/1999/xlink"><linearGradient id="a"><stop offset="0" stop-color="#0968ef"/><stop offset="1" stop-color="#aecffc"/></linearGradient><linearGradient id="b" gradientTransform="matrix(.09695085 0 0 .2090041 27.374234 -114.85256)" gradientUnits="userSpaceOnUse" x1="399.77466" x2="399.77466" y1="1164.6696" y2="549.06134"><stop offset="0" stop-color="#b4b4b6"/><stop offset=".5" stop-color="#9c9ca1"/><stop offset="1" stop-color="#cdcdd1"/></linearGradient><linearGradient id="c" gradientTransform="matrix(.8272408 0 0 1.5555557 28.803329 -35.555551)" gradientUnits="userSpaceOnUse" x1="112.00001" x2="112.00001" y1="124.23937" y2="-22.601965"><stop offset="0" stop-color="#fff"/><stop offset=".42597079" stop-color="#fff"/><stop offset=".5892781" stop-color="#f1f1f1"/><stop offset=".80219781" stop-color="#eaeaea"/><stop offset="1" stop-color="#dfdfdf"/></linearGradient><linearGradient id="d" gradientTransform="matrix(-.70268153 .00000003 -.00000002 -.41263578 22.094695 51.394544)" gradientUnits="userSpaceOnUse" x1="12.131731" x2="7.983612" xlink:href="#a" y1="120.57536" y2="-118.6722"/><linearGradient id="e" gradientTransform="matrix(-.70268153 -.00000003 -.00000002 .41263578 22.094695 78.098152)" gradientUnits="userSpaceOnUse" x1="12.131731" x2="8.000006" xlink:href="#a" y1="120.57536" y2="-105.05704"/><g transform="scale(.1875)"><rect fill="url(#b)" height="117.33326" rx="2.857143" ry="2.769231" width="90.666611" x="37.333309" y="5.33341"/><rect fill="url(#c)" fill-rule="evenodd" height="106.6666" rx="1.750002" ry="1.750001" width="79.999947" x="42.666641" y="10.66674"/><path d="m0 30.043269 10.66666-8.709869v42.66664h5.33333v-42.66664l10.66666 8.574276v-5.80658l-11.120299-11.477566h-4.426052l-11.120299 11.613159z" fill="url(#d)"/><path d="m0 97.956802 10.66666 8.709878v-45.374024h5.33333v45.374024l10.666661-8.845471v5.806591l-11.1203 11.74875h-4.426052l-11.120299-11.61316z" fill="url(#e)"/></g></svg>

<?xml version="1.0" encoding="UTF-8" standalone="no"?>
<svg
   xmlns:dc="http://purl.org/dc/elements/1.1/"
   xmlns:cc="http://creativecommons.org/ns#"
   xmlns:rdf="http://www.w3.org/1999/02/22-rdf-syntax-ns#"
   xmlns:svg="http://www.w3.org/2000/svg"
   xmlns="http://www.w3.org/2000/svg"
   xmlns:xlink="http://www.w3.org/1999/xlink"
   xmlns:sodipodi="http://sodipodi.sourceforge.net/DTD/sodipodi-0.dtd"
   xmlns:inkscape="http://www.inkscape.org/namespaces/inkscape"
   height="24"
   width="24"
   version="1.1"
   id="svg35"
   sodipodi:docname="lc_attributepagesize.svg"
   inkscape:version="0.92.4 (unknown)"
   inkscape:export-filename="/home/rizmut/Dokumen/Rizmut/Github/libreoffice-style-karasa-jaga/build/next/cmd/lc_attributepagesize.png"
   inkscape:export-xdpi="18"
   inkscape:export-ydpi="18">
  <metadata
     id="metadata41">
    <rdf:RDF>
      <cc:Work
         rdf:about="">
        <dc:format>image/svg+xml</dc:format>
        <dc:type
           rdf:resource="http://purl.org/dc/dcmitype/StillImage" />
        <dc:title></dc:title>
      </cc:Work>
    </rdf:RDF>
  </metadata>
  <defs
     id="defs39" />
  <sodipodi:namedview
     pagecolor="#ffffff"
     bordercolor="#666666"
     borderopacity="1"
     objecttolerance="10"
     gridtolerance="10"
     guidetolerance="10"
     inkscape:pageopacity="0"
     inkscape:pageshadow="2"
     inkscape:window-width="1366"
     inkscape:window-height="706"
     id="namedview37"
     showgrid="true"
     inkscape:zoom="20.85965"
     inkscape:cx="5.1478053"
     inkscape:cy="11.487879"
     inkscape:window-x="0"
     inkscape:window-y="0"
     inkscape:window-maximized="1"
     inkscape:current-layer="g4773">
    <inkscape:grid
       type="xygrid"
       id="grid848"
       spacingx="0.5"
       spacingy="0.5"
       empspacing="2" />
  </sodipodi:namedview>
  <linearGradient
     id="a">
    <stop
       offset="0"
       stop-color="#0968ef"
       id="stop2" />
    <stop
       offset="1"
       stop-color="#aecffc"
       id="stop4" />
  </linearGradient>
  <linearGradient
     id="b"
     gradientTransform="matrix(0.09695085,0,0,0.2090041,27.374234,-114.85256)"
     gradientUnits="userSpaceOnUse"
     x1="399.77466"
     x2="399.77466"
     y1="1164.6696"
     y2="549.06134">
    <stop
       offset="0"
       stop-color="#b4b4b6"
       id="stop7" />
    <stop
       offset=".5"
       stop-color="#9c9ca1"
       id="stop9" />
    <stop
       offset="1"
       stop-color="#cdcdd1"
       id="stop11" />
  </linearGradient>
  <linearGradient
     id="c"
     gradientTransform="matrix(0.8272408,0,0,1.5555557,28.803329,-35.555551)"
     gradientUnits="userSpaceOnUse"
     x1="112.00001"
     x2="112.00001"
     y1="124.23937"
     y2="-22.601965">
    <stop
       offset="0"
       stop-color="#fff"
       id="stop14" />
    <stop
       offset=".42597079"
       stop-color="#fff"
       id="stop16" />
    <stop
       offset=".5892781"
       stop-color="#f1f1f1"
       id="stop18" />
    <stop
       offset=".80219781"
       stop-color="#eaeaea"
       id="stop20" />
    <stop
       offset="1"
       stop-color="#dfdfdf"
       id="stop22" />
  </linearGradient>
  <linearGradient
     id="d"
     gradientTransform="matrix(-0.70268153,3e-8,-2e-8,-0.41263578,22.094695,51.394544)"
     gradientUnits="userSpaceOnUse"
     x1="12.131731"
     x2="7.9836121"
     xlink:href="#a"
     y1="120.57536"
     y2="-118.6722" />
  <linearGradient
     id="e"
     gradientTransform="matrix(-0.70268153,-3e-8,-2e-8,0.41263578,22.094695,78.098152)"
     gradientUnits="userSpaceOnUse"
     x1="12.131731"
     x2="8.0000057"
     xlink:href="#a"
     y1="120.57536"
     y2="-105.05704" />
  <g
     id="g4773"
     transform="scale(0.1875)">
    <rect
       style="fill:url(#b)"
       id="rect27"
       y="5.3334098"
       x="37.333309"
       width="90.666611"
       ry="2.7692311"
       rx="2.8571429"
       height="117.33326" />
    <rect
       style="fill:url(#c);fill-rule:evenodd"
       id="rect29"
       y="10.66674"
       x="42.666641"
       width="79.999947"
       ry="1.750001"
       rx="1.750002"
       height="106.6666" />
    <path
       sodipodi:nodetypes="ccccccccccc"
       inkscape:connector-curvature="0"
       style="fill:url(#d)"
       id="path31"
       d="M 0,30.043269 10.66666,21.3334 v 42.66664 h 5.33333 V 21.3334 l 10.66666,8.574276 v -5.80658 L 15.546351,12.62353 H 11.120299 L 0,24.236689 Z" />
    <path
       sodipodi:nodetypes="ccccccccccc"
       inkscape:connector-curvature="0"
       style="fill:url(#e)"
       id="path33"
       d="m 0,97.956802 10.66666,8.709878 V 61.292656 h 5.33333 v 45.374024 l 10.666661,-8.845471 v 5.806591 l -11.1203,11.74875 H 11.120299 L 0,103.76339 Z" />
  </g>
</svg>
